dist/svg/Liquor-fill.svg

<svg xmlns="http://www.w3.org/2000/svg" viewBox="0 0 24 24"><path d="M9.7 2.817a.8.8 0 0 0-.37.354c-.064.119-.072.353-.09 2.909l-.02 2.78-.118.212c-.126.229-.236.337-.719.708a2.92 2.92 0 0 0-1.05 1.54c-.069.244-.073.503-.073 4.22v3.96l.109.32c.151.445.362.783.695 1.116s.671.544 1.116.695l.32.109h4l.32-.109a2.74 2.74 0 0 0 1.116-.695c.333-.333.544-.671.695-1.116l.109-.32v-3.96c0-3.722-.004-3.976-.073-4.22a2.9 2.9 0 0 0-1.04-1.53c-.501-.389-.603-.49-.729-.718l-.118-.212-.02-2.78c-.018-2.492-.027-2.792-.086-2.9-.088-.159-.267-.325-.407-.377-.179-.068-3.413-.055-3.567.014M12.5 6v.74h-2l-.011-.699c-.006-.384-.002-.722.009-.75.016-.042.226-.05 1.011-.042l.991.011zm3 7v.74l-1.37.011-1.37.01v3.478l1.37.01 1.37.011v1.48h-3.28l-.223-.105a1.6 1.6 0 0 1-.376-.256 1.6 1.6 0 0 1-.256-.376l-.105-.223v-4.56l.104-.223c.178-.379.524-.65.913-.717.101-.017.867-.029 1.703-.026l1.52.006z"/></svg>

<svg fill="none" xmlns="http://www.w3.org/2000/svg" viewBox="0 0 24 24"><path d="M9.700 2.817 C 9.547 2.885,9.420 3.007,9.330 3.171 C 9.266 3.290,9.258 3.524,9.240 6.080 L 9.220 8.860 9.102 9.072 C 8.976 9.301,8.866 9.409,8.383 9.780 C 7.865 10.178,7.507 10.704,7.333 11.320 C 7.264 11.564,7.260 11.823,7.260 15.540 L 7.260 19.500 7.369 19.820 C 7.520 20.265,7.731 20.603,8.064 20.936 C 8.397 21.269,8.735 21.480,9.180 21.631 L 9.500 21.740 11.500 21.740 L 13.500 21.740 13.820 21.631 C 14.265 21.480,14.603 21.269,14.936 20.936 C 15.269 20.603,15.480 20.265,15.631 19.820 L 15.740 19.500 15.740 15.540 C 15.740 11.818,15.736 11.564,15.667 11.320 C 15.493 10.706,15.144 10.193,14.627 9.790 C 14.126 9.401,14.024 9.300,13.898 9.072 L 13.780 8.860 13.760 6.080 C 13.742 3.588,13.733 3.288,13.674 3.180 C 13.586 3.021,13.407 2.855,13.267 2.803 C 13.088 2.735,9.854 2.748,9.700 2.817 M12.500 6.000 L 12.500 6.740 11.500 6.740 L 10.500 6.740 10.489 6.041 C 10.483 5.657,10.487 5.319,10.498 5.291 C 10.514 5.249,10.724 5.241,11.509 5.249 L 12.500 5.260 12.500 6.000 M15.500 13.000 L 15.500 13.740 14.130 13.751 L 12.760 13.761 12.760 15.500 L 12.760 17.239 14.130 17.249 L 15.500 17.260 15.500 18.000 L 15.500 18.740 13.860 18.740 L 12.220 18.740 11.997 18.635 C 11.874 18.578,11.705 18.462,11.621 18.379 C 11.538 18.295,11.422 18.126,11.365 18.003 L 11.260 17.780 11.260 15.500 L 11.260 13.220 11.364 12.997 C 11.542 12.618,11.888 12.347,12.277 12.280 C 12.378 12.263,13.144 12.251,13.980 12.254 L 15.500 12.260 15.500 13.000 " stroke="none" fill-rule="evenodd"/></svg>
